X:976
T:Meeting of The Waters #2, The
C:Joe Buchanan's Scottish Tome - Page 565.3
I:565 3
Z:Carl Allison
R:Waltz
L:1/4
M:3/4
K:A
e/d/ | "A"c B A | "D"A F E | "D"E F A | "A"A2 B/c/ | "E7"d d c/B/ | "A"B c A | "A"e c A | "E7"B2 B/c/ |
"E7"d d c/B/ | "A"B c A | "A"e c A | "E7"B2 A/B/ | c>B A | "D"A F "A"E | E F A | A2 |]

